public/icons/favicon.svg

<?xml version="1.0" encoding="utf-8"?>
<svg viewBox="0 0 512 512" width="512" height="512" xmlns="http://www.w3.org/2000/svg">
  <defs>
    <linearGradient id="c" x1="95.68" x2="419.445" y1="100.067" y2="287.191" gradientTransform="matrix(.47115 0 0 -.47097 46.275 181.168)" gradientUnits="userSpaceOnUse" spreadMethod="pad">
      <stop offset="0" stop-color="#9340ff" />
      <stop offset="1" stop-color="#ff3c5f" />
    </linearGradient>
    <linearGradient id="d" x1="303.702" x2="525.831" y1="79.71" y2="214.6" gradientTransform="matrix(.47115 0 0 -.47097 46.246 181.168)" gradientUnits="userSpaceOnUse" spreadMethod="pad">
      <stop offset="0" stop-color="#9340ff" />
      <stop offset="1" stop-color="#ff3c5f" />
    </linearGradient>
    <linearGradient id="e" x1="100.619" x2="424.383" y1="91.522" y2="278.646" gradientTransform="matrix(.47115 0 0 -.47097 46.246 181)" gradientUnits="userSpaceOnUse" spreadMethod="pad">
      <stop offset="0" stop-color="#9340ff" />
      <stop offset="1" stop-color="#ff3c5f" />
    </linearGradient>
    <linearGradient id="f" x1="239.392" x2="22.46" y1="299.974" y2="193.997" gradientTransform="matrix(.47115 0 0 -.47097 46.276 181)" gradientUnits="userSpaceOnUse" spreadMethod="pad">
      <stop offset="0" stop-color="#9340ff" />
      <stop offset="1" stop-color="#ff3c5f" />
    </linearGradient>
    <clipPath id="a" clipPathUnits="userSpaceOnUse">
      <path d="M 0 7.92 h 1024.5 v 576 H 0 Z" />
    </clipPath>
    <clipPath id="b">
      <path d="M 599.363 75.077 h 3073.374 v 2251.098 H 599.363 Z" clip-rule="evenodd" />
    </clipPath>
  </defs>
  <g clip-path="url(#a)" transform="matrix(.56165 0 0 -.57774 -27.802 404.708)">
    <g clip-path="url(#b)" transform="matrix(.29733 0 0 .22157 -129.743 -8.715)">
      <path fill="url(#c)" transform="matrix(6.13772 0 0 6.13545 602.847 75.077)" d="M 377.371 62.32 0 245.658 V 121.684 L 250.12.168 377.371 62.32 Z" />
      <path fill="url(#d)" transform="matrix(6.13772 0 0 6.13545 602.847 75.077)" d="m 250.09 124.153 249.443 121.505 V 121.684 L 250.12.169 l -.03 123.984 Z" />
      <path fill="url(#e)" transform="matrix(6.13772 0 0 6.13545 602.847 75.077)" d="M 499.533 245.349 249.412 366.865 l -127.251-62.152 377.372-183.339 v 123.975 Z" />
      <path fill="url(#f)" transform="matrix(6.13772 0 0 6.13545 602.847 75.077)" d="m 0 245.349 249.412 121.516.368-124.153 L 0 121.374 v 123.975 Z" />
    </g>
  </g>
</svg>

<?xml version="1.0" encoding="utf-8"?>
<svg viewBox="0 0 512 512" width="512" height="512" xmlns="http://www.w3.org/2000/svg">
  <defs>
    <clipPath id="clipPath14" clipPathUnits="userSpaceOnUse">
      <path id="path12" d="m 0,7.92 h 1024.5 v 576 H 0 Z"/>
    </clipPath>
    <clipPath id="clipPath60">
      <path style="clip-rule:evenodd" d="m 599.3631,75.077301 h 3073.374 V 2326.1752 H 599.3631 Z"/>
    </clipPath>
    <linearGradient id="linearGradient68" spreadMethod="pad" gradientTransform="matrix(0.471147, 0, 0, -0.470973, 46.275486, 181.16832)" gradientUnits="userSpaceOnUse" y2="287.19101" x2="419.44501" y1="100.067" x1="95.68">
      <stop offset="0" style="stop-color:#9340ff"/>
      <stop offset="1" style="stop-color:#ff3c5f"/>
    </linearGradient>
    <linearGradient id="linearGradient76" spreadMethod="pad" gradientTransform="matrix(0.471147, 0, 0, -0.470973, 46.246279, 181.168076)" gradientUnits="userSpaceOnUse" y2="214.60001" x2="525.83099" y1="79.709999" x1="303.702">
      <stop offset="0" style="stop-color:#9340ff"/>
      <stop offset="1" style="stop-color:#ff3c5f"/>
    </linearGradient>
    <linearGradient id="linearGradient84" spreadMethod="pad" gradientTransform="matrix(0.471147, 0, 0, -0.470973, 46.246286, 181.000092)" gradientUnits="userSpaceOnUse" y2="278.646" x2="424.383" y1="91.522003" x1="100.619">
      <stop offset="0" style="stop-color:#9340ff"/>
      <stop offset="1" style="stop-color:#ff3c5f"/>
    </linearGradient>
    <linearGradient id="linearGradient92" spreadMethod="pad" gradientTransform="matrix(0.471147, 0, 0, -0.470973, 46.276051, 180.999968)" gradientUnits="userSpaceOnUse" y2="193.99699" x2="22.459999" y1="299.974" x1="239.392">
      <stop offset="0" style="stop-color:#9340ff"/>
      <stop offset="1" style="stop-color:#ff3c5f"/>
    </linearGradient>
  </defs>
  <g clip-path="url(#clipPath14)" transform="matrix(0.561646,0,0,-0.577742,-27.801661,404.707642)">
    <g transform="matrix(0.31999998,0,0,0.31999998,0,4.6130666e-5)">
      <g transform="matrix(0.953693,0,0,0.796522,-531.934143,-269.425934)">
        <g clip-path="url(#clipPath60)" transform="matrix(0.974266,0,0,0.869274,132.627655,304.062653)">
          <g transform="matrix(6.1377239,0,0,6.1354537,602.84662,75.077301)">
            <path style="fill:url(#linearGradient68)" d="M 377.371 62.32 L 0 245.658 L 0 121.684 L 250.12 0.168 L 377.371 62.32 Z"/>
            <path style="fill:url(#linearGradient76)" d="M 250.09 124.153 L 499.533 245.658 L 499.533 121.684 L 250.12 0.169 L 250.09 124.153 Z"/>
            <path style="fill:url(#linearGradient84)" d="M 499.533 245.349 L 249.412 366.865 L 122.161 304.713 L 499.533 121.374 L 499.533 245.349 Z"/>
            <path style="fill:url(#linearGradient92)" d="M 0 245.349 L 249.412 366.865 L 249.78 242.712 L 0 121.374 L 0 245.349 Z"/>
          </g>
        </g>
      </g>
    </g>
  </g>
</svg>
